src/Icon/svgs/analysis.svg

<svg width="24" height="24" viewBox="0 0 24 24" fill="none" xmlns="http://www.w3.org/2000/svg">
<path d="M16.7071 10.7071C17.0976 10.3166 17.0976 9.68342 16.7071 9.29289C16.3166 8.90237 15.6834 8.90237 15.2929 9.29289L12 12.5858L10.7071 11.2929C10.3166 10.9024 9.68342 10.9024 9.29289 11.2929L7.29289 13.2929C6.90237 13.6834 6.90237 14.3166 7.29289 14.7071C7.68342 15.0976 8.31658 15.0976 8.70711 14.7071L10 13.4142L11.2929 14.7071C11.6834 15.0976 12.3166 15.0976 12.7071 14.7071L16.7071 10.7071Z" fill="#1B1C1D"/>
<path fill-rule="evenodd" clip-rule="evenodd" d="M3 4C2.44772 4 2 4.44772 2 5V18C1.44772 18 1 18.4477 1 19C1 19.5523 1.44772 20 2 20H22C22.5523 20 23 19.5523 23 19C23 18.4477 22.5523 18 22 18V5C22 4.44772 21.5523 4 21 4H3ZM20 6V18H4V6H20Z" fill="#1B1C1D"/>
</svg>

<svg xmlns="http://www.w3.org/2000/svg" width="24" height="24" fill="#1b1c1d"  xmlns:v="https://vecta.io/nano"><path d="M16.707 10.707a1 1 0 0 0-1.414-1.414L12 12.586l-1.293-1.293a1 1 0 0 0-1.414 0l-2 2a1 1 0 0 0 1.414 1.414L10 13.414l1.293 1.293a1 1 0 0 0 1.414 0l4-4z"/><path fill-rule="evenodd" d="M3 4a1 1 0 0 0-1 1v13a1 1 0 1 0 0 2h20a1 1 0 1 0 0-2V5a1 1 0 0 0-1-1H3zm17 2v12H4V6h16z"/></svg>
